svgs/sharp-duotone-light/highlighter.svg

<svg xmlns="http://www.w3.org/2000/svg" viewBox="0 0 576 512"><!--! Font Awesome Pro 7.1.0 by @fontawesome - https://fontawesome.com License - https://fontawesome.com/license (Commercial License) Copyright 2025 Fonticons, Inc. --><path opacity=".4" fill="currentColor" d="M38.6 480l72.4-72.4 41.4 41.4-31 31-82.7 0zM238.2 199.6L475.9 41.2 518.8 84.1 360.4 321.7 238.2 199.6z"/><path fill="currentColor" d="M263.4 416l72.6 0 224-336-80-80-336 224 0 72.6c-37.4 37.4-61.4 61.4-72 72l16.4 16.4-83.7 83.7-4.7 4.7 0 38.6 134.6 0 4.7-4.7 35.7-35.7 16.4 16.4c10.6-10.6 34.6-34.6 72-72zm-111 33l-31 31-82.7 0 72.4-72.4 41.4 41.4zm39-6.2l-74.1-74.1 49.4-49.4 9.4-9.4 0-68.8 35.1-23.4 131.2 131.2-23.4 35.1-68.7 0-9.4 9.4-49.4 49.4zm46.9-243.1L475.9 41.2 518.8 84.1 360.4 321.7 238.2 199.6z"/></svg>

<svg xmlns="http://www.w3.org/2000/svg" viewBox="0 0 576 512"><!--! Font Awesome Pro 6.7.2 by @fontawesome - https://fontawesome.com License - https://fontawesome.com/license (Commercial License) Copyright 2024 Fonticons, Inc. --><defs><style>.fa-secondary{opacity:.4}</style></defs><path class="fa-secondary" d="M38.6 480L111 407.6 152.4 449l-31 31-82.7 0zM238.2 199.6L475.9 41.2l42.9 42.9L360.4 321.7 238.2 199.6z"/><path class="fa-primary" d="M263.4 416l72.6 0L560 80 480 0 144 224l0 72.6L94.6 346 72 368.6 88.4 385 4.7 468.7 0 473.4 0 480l0 16 0 16 16 0 112 0 6.6 0 4.7-4.7L175 471.6 191.4 488 214 465.4 263.4 416zm-111 33l-31 31-82.7 0L111 407.6 152.4 449zm39-6.2l-74.1-74.1 49.4-49.4 9.4-9.4 0-13.3 0-55.5 35.1-23.4L342.3 348.9 318.9 384l-55.5 0-13.3 0-9.4 9.4-49.4 49.4zm46.9-243.1L475.9 41.2l42.9 42.9L360.4 321.7 238.2 199.6z"/></svg>
